X: 9687
T: Dear Old Whistle
R: jig
M: 6/8
K: Dmajor
|:D3DFA|d3d2A|def edB|ABd BAF|
E3EGB|e3e2B|efg fed|BdB BAF:|
|:A3DFA|ded dAF|G3EGB|efe efg|
afd gfe|ded A2F|GFE EFG|A2F GFE:|

